X: 204
T: Highland Whisky
M: C
L: 1/8
Q:1/4=170
K:A % 3 Sharps
T: Neil Gow
% (c) SSF July 2006
E|
"A"A<A A2 A>B c<e|"Bm"Bc "E7"d>e f<a|
"A"A<A A2 A>B c<d|"A"ef/2g/2 a>c "E7"B2 "A"A3/2:||\
e/2|
"A"(c/2B/2A) e>A "D"f>A "A"e>A|"Bm"FA "E7"^Ge|
"A"(c/2B/2A) e>A "D"f>A "A"e>A|"A"ef/2g/2 a>c "E7"B2 "A" A>e|\
"A"(c/2B/2A) e>A "D"f>A "A"e>A|"Bm"FA "E7"^Ge|
"A"A<c "E7"B>d "A"c<e "D"d>f|"A"ef/2g/2 a>c "E7"B2 "A"A||\
%  <A name="D1X205">



